assets/icons/icon-chevron__up/web/icon-chevron__up.svg

<?xml version="1.0" encoding="UTF-8" standalone="no"?>
<svg width="48px" height="48px" viewBox="0 0 48 48" version="1.1" xmlns="http://www.w3.org/2000/svg" xmlns:xlink="http://www.w3.org/1999/xlink">
    <!-- Generator: Sketch 45.2 (43514) - http://www.bohemiancoding.com/sketch -->
    <title>icon-chevron__up</title>
    <desc>Created with Sketch.</desc>
    <defs></defs>
    <g id="Symbols" stroke="none" stroke-width="1" fill="none" fill-rule="evenodd">
        <g id="icon-chevron__up" fill="#2D2D2D">
            <path d="M24,21.3629387 L16.6742689,28.2267712 C16.2731903,28.6025611 15.6435696,28.5803099 15.2686945,28.1763944 C14.8912059,27.7696629 14.9153239,27.1401569 15.3167262,26.7640638 L23.2505832,19.3304488 C23.256514,19.3237134 23.2625511,19.3170351 23.2686945,19.3104157 C23.4655451,19.0983157 23.7326393,18.991456 24,18.9922077 C24.2673607,18.991456 24.5344549,19.0983157 24.7313055,19.3104157 C24.7374489,19.3170351 24.743486,19.3237134 24.7494168,19.3304488 L32.6832738,26.7640638 C33.0846761,27.1401569 33.1087941,27.7696629 32.7313055,28.1763944 C32.3564304,28.5803099 31.7268097,28.6025611 31.3257311,28.2267712 L24,21.3629387 Z"></path>
        </g>
    </g>
</svg>

<svg width="48" height="48" viewBox="0 0 48 48" xmlns="http://www.w3.org/2000/svg"><title>icon-chevron__up</title><path d="M24 21.363l-7.326 6.864a.991.991 0 0 1-1.405-.05 1 1 0 0 1 .048-1.413l7.934-7.434.018-.02a.991.991 0 0 1 .731-.318.991.991 0 0 1 .75.338l7.933 7.434a1 1 0 0 1 .048 1.412.991.991 0 0 1-1.405.05L24 21.364z" fill="#2D2D2D" fill-rule="evenodd"/></svg>
